src/static/logos/unity.svg

<?xml version="1.0" encoding="UTF-8" standalone="no"?>
<svg width="256px" height="263px" viewBox="0 0 256 263" version="1.1" xmlns="http://www.w3.org/2000/svg" xmlns:xlink="http://www.w3.org/1999/xlink" preserveAspectRatio="xMidYMid">
	<g fill="#222C37">
		<path d="M166.872326,131.23686 L212.781118,51.9623472 L234.965569,131.23686 L212.781118,210.493243 L166.872326,131.23686 L166.872326,131.23686 Z M144.495923,144.110517 L190.412179,223.373299 L110.445569,202.886567 L52.6751399,144.110517 L144.495923,144.110517 L144.495923,144.110517 Z M190.401515,39.0780261 L144.495923,118.352539 L52.6751399,118.352539 L110.445569,59.5732891 L190.401515,39.0780261 L190.401515,39.0780261 Z M255.940714,104.258913 L227.932619,0.0603519323 L123.392808,27.9852677 L107.918186,55.1924919 L76.5167858,54.9674802 L0,131.244325 L76.5167858,207.50304 L76.519985,207.50304 L107.907522,207.270564 L123.404539,234.477788 L227.932619,262.398438 L255.940714,158.219072 L240.035264,131.23686 L255.940714,104.258913 L255.940714,104.258913 Z"></path>
	</g>
</svg>

<svg width="256" height="263" xmlns="http://www.w3.org/2000/svg" preserveAspectRatio="xMidYMid"><path d="M166.872 131.237l45.91-79.275 22.184 79.275-22.185 79.256-45.909-79.256zm-22.376 12.874l45.916 79.262-79.966-20.486-57.77-58.776h91.82zm45.906-105.033l-45.906 79.275h-91.82l57.77-58.78 79.956-20.495zm65.539 65.18L227.933.06l-104.54 27.925-15.475 27.207-31.401-.225L0 131.244l76.517 76.259h.003l31.388-.232 15.497 27.207 104.528 27.92L255.94 158.22l-15.906-26.982 15.906-26.978z" fill="#222C37"/></svg>
